icons/files-name.svg

<svg
  xmlns="http://www.w3.org/2000/svg"
  viewBox="0 0 500 500"
  width="500"
  height="500"
  fill="#ffffff"
>
  <path d="M383.43 127.79H264.7a9.8 9.8 0 1 0 0 19.6h118.73a9.8 9.8 0 1 0 0-19.6z" />
  <path d="M383.43 216.1H264.7a9.8 9.8 0 1 0 0 19.6h118.73a9.8 9.8 0 1 0 0-19.6z" />
  <path d="M383.05 304.41H116.94a9.8 9.8 0 0 0 0 19.6h266.11a9.8 9.8 0 1 0 0-19.6z" />
  <path d="M235.68 392.71H116.94a9.8 9.8 0 1 0 0 19.6h118.74a9.8 9.8 0 0 0 0-19.6z" />
  <path d="M410.86 5H93.41C62.85 5 38 31.5 38 64.09v371.82C38 468.5 62.85 495 93.41 495h313.17c30.56 0 55.42-26.5 55.42-59.09V60.25zm-4.28 470.4H93.41c-19.75 0-35.81-17.71-35.81-39.49V64.09c0-21.78 16.06-39.49 35.81-39.49h295.41v51.13h53.58v360.18c0 21.78-16.06 39.49-35.82 39.49z" />
  <rect x="104.51" y="127.34" width="112.86" height="112.86" />
</svg>

<svg xmlns="http://www.w3.org/2000/svg" viewBox="0 0 500 500">
  <g id="files-name">
    <path id="line1" d="M383.43,127.79H264.7a9.8,9.8,0,1,0,0,19.6H383.43a9.8,9.8,0,1,0,0-19.6Z"/>
    <path id="line2" d="M383.43,216.1H264.7a9.8,9.8,0,1,0,0,19.6H383.43a9.8,9.8,0,1,0,0-19.6Z"/>
    <path id="line3" d="M383.05,304.41H116.94a9.8,9.8,0,0,0,0,19.6H383.05a9.8,9.8,0,1,0,0-19.6Z"/>
    <path id="line4" d="M235.68,392.71H116.94a9.8,9.8,0,1,0,0,19.6H235.68a9.8,9.8,0,0,0,0-19.6Z"/>
    <path id="outline" d="M410.86,5H93.41C62.85,5,38,31.5,38,64.09V435.91C38,468.5,62.85,495,93.41,495H406.58c30.56,0,55.42-26.5,55.42-59.09V60.25Zm-4.28,470.4H93.41c-19.75,0-35.81-17.71-35.81-39.49V64.09c0-21.78,16.06-39.49,35.81-39.49H388.82V75.73H442.4V435.91C442.4,457.69,426.34,475.4,406.58,475.4Z"/>
    <rect id="square" x="104.51" y="127.34" width="112.86" height="112.86"/>
  </g>
</svg>
